X: 201
T: Mickey Callaghan's
R:Hornpipe
T:Michael Tubridy’s
M:4/4
L:1/8
K:G
BA|"G"GEDE GABA|GEDE GABc|dBeB dBGB|"D"AGAB "C"c2BA|
"G"GEDE GABA|GEDE GABc|dBeB dBGB|"D"(3AAA "G"GFG2:|
Bd|"C"e2eg edBc|"G"d2de dBGB|"C"c2ec "G"B2AG|"Am"EAAG "Am7"AcBA|
"G"GEDE GABA|GEDE GABc|dBeB dBGB|"D"(3AAA "G"GFG2:|


